X:245
T: DIE SONNE SANK IM WESTEN
N: E1385
O: Europa, Mitteleuropa, Deutschland, Hessen, Wetzlar; Dill - Kreis
R: Staende -, Soldaten -, Kriegs - Lied, Tod
M: 6/8
L: 1/16
K: C
G2 | G4E2A4G2 | G2F2z6
D2 | F4F2F2G2A2 | G6z4
G2 | c4e2d4c2 | B6A4
cA | G4G2A2G2F2 | E6z4
G2 | c4e2d4c2 | B6A4
cA | G4G2A2G2F2 | E6z4

@@@ Tune index: 4929
